chainCurrencyIcons/colored/250-min.svg

<svg viewBox="0 0 128 128" fill="none" xmlns="http://www.w3.org/2000/svg"><rect width="128" height="128" rx="64" fill="#13B5EC"/><path fill-rule="evenodd" clip-rule="evenodd" d="M68.8 51.7387L83.2 43.2965V60.1809L68.8 51.7387ZM83.2 87.9196L64 99.1759L44.8 87.9196V68.2211L64 79.4774L83.2 68.2211V87.9196ZM44.8 43.2965L59.2 51.7387L44.8 60.1809V43.2965ZM66.4 55.7588L80.8 64.201L66.4 72.6432V55.7588ZM61.6 72.6432L47.2 64.201L61.6 55.7588V72.6432ZM80.8 39.2764L64 48.9246L47.2 39.2764L64 29.2261L80.8 39.2764ZM40 37.6683V90.3317L64 104L88 90.3317V37.6683L64 24L40 37.6683Z" fill="white"/></svg>

<svg xmlns="http://www.w3.org/2000/svg" fill="none" viewBox="0 0 128 128"><rect width="128" height="128" fill="#13B5EC" rx="64"/><path fill="#fff" fill-rule="evenodd" d="m68.8 51.739 14.4-8.442V60.18zm14.4 36.18L64 99.177 44.8 87.92V68.22L64 79.477l19.2-11.256zM44.8 43.298l14.4 8.442-14.4 8.442zm21.6 12.462L80.8 64.2l-14.4 8.442zm-4.8 16.884-14.4-8.442 14.4-8.442zm19.2-33.367L64 48.925l-16.8-9.649L64 29.226zM40 37.668v52.664L64 104l24-13.668V37.668L64 24z" clip-rule="evenodd"/></svg>
